X: 44
M:6/8
L:1/8
K:G
e|dBG AGE|GED D2 E|G2 G A2 A|BAA Age|
dBG AGE|GED D2 E|G2 G A2 A|BGG G2:|
|:D|G2 G GAB|A2 A ABd|e>ee efg|dBG AGE|

